src/images/logo-karlab-invert.svg

<svg fill="none" height="29" viewBox="0 0 120 29" width="120" xmlns="http://www.w3.org/2000/svg"><path clip-rule="evenodd" d="m79.8089.311255.0817-.077814c.0817 0 .1633-.077813.3267-.233441h18.3798v28.5577h-6.535v-10.894c-.5008 0-.9589-.0203-1.4071-.0401h-.0001c-.4291-.0191-.849-.0377-1.2885-.0377h-2.7774v11.0496h-6.7801zm12.0081 6.302915h-5.3097v4.43543h5.3097zm-70.823 22.02103h7.2702v-10.8938h4.8196c0 1.1846-.0089 2.7783-.018 4.3834-.0182 3.2448-.0367 6.5362.018 6.5883h6.6984v-18.0527-10.504842h-18.7882zm7.2702-22.02113h4.6562v4.59103h-4.6562c-.0821.1956-.061-.4547-.0301-1.40695.0306-.94153.0707-2.17822.0301-3.18408zm88.2228 7.62613s2.369-1.8676 3.513-2.6457v-11.360764h-18.788v28.401964h18.788v-11.3608zm-3.267 8.5595h-5.31v-5.0579h5.31zm.082-11.6721h-5.392c-.093-.7974-.08-1.61996-.067-2.46778.01-.64142.021-1.29727-.015-1.96756h5.474zm-101.784-.0003h-4.81959c0-1.18461.00895-2.77831.01796-4.3834v-.00002-.00001-.00002-.00002-.00002-.00004c.01821-3.24483.03669-6.536151-.01796-6.588212h-6.69841v28.635442h6.69841c0-1.8364.06179-4.6147.11298-6.916.04968-2.2337.08936-4.018.05285-4.0557h4.73546v10.8939h7.2702v-10.9717l-3.5943-2.7235s2.6141-2.4122 3.5943-3.346v-11.283h-7.3519zm53.4243 11.672h12.1715c0 .5269.0221 1.0327.0434 1.5173v.0004c.0195.4457.0383.8735.0383 1.2836v3.0347h-18.9516v-11.4386c-.708-.5187-1.4159-1.1066-2.1238-1.6945l-.0001-.0001c-.354-.294-.708-.5879-1.062-.8732.7352-.7782 2.7774-2.7235 3.1859-3.0348v-11.438542h6.6984v11.205142zm-16.0927-5.6804c-.4901 0-.9803.0194-1.4704.0389-.4901.0194-.9803.0389-1.4704.0389v11.5941h6.1266v-11.6719c-.3907 0-.7718-.0091-1.1434-.018h-.0002c-.7162-.017-1.3969-.0333-2.0422.018zm-1.0621-11.12712h4.1661c.0409.4669.0613.93379.0817 1.40068.0204.46687.0408.93374.0817 1.40062v3.03472h-3.1042-2.4506v-5.83602z" fill="#fff" fill-rule="evenodd"/></svg>

<svg width="120" height="29" viewBox="0 0 120 29" fill="none" xmlns="http://www.w3.org/2000/svg">
<path fill-rule="evenodd" clip-rule="evenodd" d="M79.8089 0.311255L79.8906 0.233441C79.9723 0.233441 80.0539 0.155628 80.2173 0H98.5971V28.5577H92.0621V17.6637C91.5613 17.6637 91.1032 17.6434 90.655 17.6236L90.6549 17.6236C90.2258 17.6045 89.8059 17.5859 89.3664 17.5859H86.589V28.6355H79.8089V0.311255ZM91.817 6.61417H86.5073V11.0496H91.817V6.61417ZM20.994 28.6352H28.2642V17.7414H33.0838C33.0838 18.926 33.0749 20.5197 33.0658 22.1248C33.0476 25.3696 33.0291 28.661 33.0838 28.7131H39.7822V10.6604V0.155558H20.994V28.6352ZM28.2642 6.61407H32.9204V11.2051H28.2642C28.1821 11.4007 28.2032 10.7504 28.2341 9.79815C28.2647 8.85662 28.3048 7.61993 28.2642 6.61407ZM116.487 14.2402C116.487 14.2402 118.856 12.3726 120 11.5945V0.233736H101.212V28.6357H120V17.2749L116.487 14.2402ZM113.22 22.7997H107.91V17.7418H113.22V22.7997ZM113.302 11.1276H107.91C107.817 10.3302 107.83 9.50764 107.843 8.65982C107.853 8.0184 107.864 7.36255 107.828 6.69226H113.302V11.1276ZM11.518 11.1273H6.69841C6.69841 9.94269 6.70736 8.34899 6.71637 6.7439V6.74388V6.74387V6.74385V6.74383V6.74381V6.74377C6.73458 3.49894 6.75306 0.207619 6.69841 0.155558H0V28.791H6.69841C6.69841 26.9546 6.7602 24.1763 6.81139 21.875V21.875C6.86107 19.6413 6.90075 17.857 6.86424 17.8193H11.5997V28.7132H18.8699V17.7415L15.2756 15.018C15.2756 15.018 17.8897 12.6058 18.8699 11.672V0.389H11.518V11.1273ZM64.9423 22.7993H77.1138C77.1138 23.3262 77.1359 23.832 77.1572 24.3166L77.1572 24.317C77.1767 24.7627 77.1955 25.1905 77.1955 25.6006V28.6353H58.2439V17.1967C57.5359 16.678 56.828 16.0901 56.1201 15.5022L56.12 15.5021L56.12 15.5021C55.766 15.2081 55.412 14.9142 55.058 14.6289C55.7932 13.8507 57.8354 11.9054 58.2439 11.5941V0.155558H64.9423V11.3607V22.7993ZM48.8496 17.1189C48.3595 17.1189 47.8693 17.1383 47.3792 17.1578C46.8891 17.1772 46.3989 17.1967 45.9088 17.1967V28.7908H52.0354V17.1189C51.6447 17.1189 51.2636 17.1098 50.892 17.1009L50.8918 17.1009C50.1756 17.0839 49.4949 17.0676 48.8496 17.1189ZM47.7875 5.99178H51.9536C51.9945 6.45868 52.0149 6.92557 52.0353 7.39246C52.0557 7.85933 52.0761 8.3262 52.117 8.79308V11.8278H49.0128H46.5622V5.99178H47.7875Z" fill="white"/>
</svg>
